!!!OTL: Heshui yinggei shangleshan
!!!ARE: Asia, China,ÿGansu Linxia
!! I, 119
!!!SCT: C1815
!!!YEM: Copyright 1995, estate of Helmut Schaffrath.
**kern
*ICvox
*Ivox
*M2/4
*k[b-e-a-]
*E-:
{8cc
16ee-
16cc
8b-
16g
16b-
=1
8cc
16ee-
16cc
8b-
8g
=2
8.cc
16ee-
8cc
8b-
=3
8.g
16f
4g}
=4
{8b-
8b-
8cc
16b-
16g
=5
8b-
16g
16f
8e-
8c
=6
16f
16g
16g
16e-
8f
16e-
16c
=7
2c}
==
!!!AGN: Xiaodiao
!! Han
!!!ONB: ESAC (Essen Associative Code) Database: SENGANSU
!!!AMT: simple duple
!!!AIN: vox
!!!EED: Helmut Schaffrath
!!!EEV: 1.0
*-
